X:109
T:British Grenadiers No 1
S:American Veteran Fifer #109
C:By C.E. Larrabee, Binghamton, N.Y.
M:2/4
L:1/8
Q:1/8=180
K:D 
%%MIDI program 72
%%MIDI transpose 8
%%MIDI ratio 3 1
A/c/ | dA de/f/ | gf ef/g/ | afef | e/d/c/B/ AB/c/ |
dA de/f/ | gf ef/g/ | ad f/e/d/c/ | dfd :|
|: F/G/ | A>B AG | FG A>A | BB g/f/e/c/ | d2c ((3A/B/c/) |
dc/d/ ed/e/ | fe/f/ gf/g/ | ad f/e/d/c/ | dfd :|


